X:141
T: Serenade (The)
N: O'Farrell's Pocket Companion v.2 (Sky ed. p.74-5)
M: C
L: 1/8
Q: 120
K: G
d2|: g2 d>c Bd/B/ GD|E/G/E/G/ c/B/A/G/ F/G/E/F/ DD|
g2 d>c Bd/B/ G>D|E/G/e/c/ B/A/G/F/ A2 G2 :|
dd e/f/g/e/ f/a/f/a/ d/c/B/A/|dd e/f/g/e/ f/a/f/a/de/f/|
g/b/g/b/ g/f/e/d/ e/g/e/g/ e/d/c/B/|c/e/a/c/ B/d/g/B/ A/G/F/E/ DD|
G/B/G/B/ EE A/c/F/A/ G/F/E/D/|G/g/e/c/ B/G/A/F/ G2 G2 :|
